resources/assets/img/errors/5xx.svg

<svg version="1.1" id="Layer_1" xmlns="http://www.w3.org/2000/svg" x="0" y="0" width="181" height="198" style="enable-background:new 0 0 181 198" xml:space="preserve"><style>.st2{fill:none;stroke:#212121;stroke-width:4;stroke-miterlimit:10}</style><circle cx="92" cy="110" r="5" style="fill:#cf0c4e"/><path d="M92 130v39m0-140v61m20 20h39m-119 0h40m33.9-14.4 29.9-29.8m-73.6 73.4 15.4-15.3m0-27.8L61.2 79.8m72.4 72.3-27.7-27.7" style="fill:none;stroke:#212121;stroke-width:4;stroke-miterlimit:10;stroke-linecap:round"/><circle class="st2" cx="92" cy="16.5" r="4.5"/><circle class="st2" cx="53" cy="148" r="5"/><circle class="st2" cx="164" cy="110" r="5"/><path class="st2" d="M46 65h10v10H46zm41 111h10v10H87z"/><path d="M18 104v12m-6-6h12m118 44v12m-6-6h12m-4-109v12m-6-6h12" style="stroke:#cf0c4e;stroke-linecap:round;fill:none;stroke-width:4;stroke-miterlimit:10"/></svg>

<svg id="Layer_1" xmlns="http://www.w3.org/2000/svg" width="181" height="198" viewBox="0 0 181 198"><style>.st0{fill:#cf0c4e}.st1{stroke-linecap:round}.st1,.st2,.st3{fill:none;stroke:#212121;stroke-width:4;stroke-miterlimit:10}.st3{stroke:#cf0c4e;stroke-linecap:round}</style><circle class="st0" cx="92" cy="110" r="5"/><path class="st1" d="M92 130v39M92 29v61M112 110h39M32 110h40M105.9 95.6l29.9-29.8M62.2 139.2l15.4-15.3M77.6 96.1L61.2 79.8M133.6 152.1l-27.7-27.7"/><circle class="st2" cx="92" cy="16.5" r="4.5"/><circle class="st2" cx="53" cy="148" r="5"/><circle class="st2" cx="164" cy="110" r="5"/><path class="st2" d="M46 65h10v10H46zM87 176h10v10H87z"/><path class="st3" d="M18 104v12M12 110h12M142 154v12M136 160h12M144 51v12M138 57h12"/></svg>
